;FLAVOR:Marlin
;TIME:2197
;Filament used: 1.31002m
;Layer height: 0.2
;MINX:94.017
;MINY:92.016
;MINZ:0.2
;MAXX:140.983
;MAXY:143
;MAXZ:19
;Generated with Cura_SteamEngine 4.6.2
M140 S60
M105
M190 S60
M104 S205
M105
M109 S205
M82 ;absolute extrusion mode
; Ender 3 Custom Start G-code
G92 E0 ; Reset Extruder
G28 ; Home all axes
G1 Z2.0 F3000 ; Move Z Axis up little to prevent scratching of Heat Bed
G1 X0.1 Y20 Z0.3 F5000.0 ; Move to start position
G1 X0.1 Y200.0 Z0.3 F1500.0 E15 ; Draw the first line
G1 X0.4 Y200.0 Z0.3 F5000.0 ; Move to side a little
G1 X0.4 Y20 Z0.3 F1500.0 E30 ; Draw the second line
G92 E0 ; Reset Extruder
G1 Z2.0 F3000 ; Move Z Axis up little to prevent scratching of Heat Bed
G1 X5 Y20 Z0.3 F5000.0 ; Move over to prevent blob squish
G92 E0
G92 E0
G1 F1500 E-6.5
;LAYER_COUNT:95
;LAYER:0
M107
G0 F6000 X118.774 Y92.852 Z0.2
;TYPE:SKIRT
G1 F1500 E0
G1 F1200 X119.723 Y92.925 E0.03166
G1 X120.404 Y93 E0.05444
G1 X121.101 Y93.101 E0.07787
G1 X121.736 Y93.214 E0.09932
G1 X122.616 Y93.399 E0.12923
G1 X123.278 Y93.561 E0.1519
G1 X123.979 Y93.758 E0.17612
G1 X124.611 Y93.958 E0.19816
G1 X125.459 Y94.257 E0.22807
G1 X126.075 Y94.497 E0.25006
G1 X126.763 Y94.791 E0.27494
G1 X127.393 Y95.086 E0.29808
G1 X128.202 Y95.499 E0.32829
G1 X128.76 Y95.807 E0.34949
G1 X129.363 Y96.164 E0.3728
G1 X129.919 Y96.518 E0.39472
G1 X130.657 Y97.022 E0.42444
G1 X131.216 Y97.432 E0.4475
G1 X131.847 Y97.929 E0.47422
G1 X132.346 Y98.348 E0.49589
G1 X132.937 Y98.878 E0.52229
G1 X133.413 Y99.334 E0.54422
G1 X133.991 Y99.924 E0.57169
G1 X134.445 Y100.419 E0.59403
G1 X134.99 Y101.054 E0.62186
G1 X135.424 Y101.595 E0.64493
G1 X135.907 Y102.242 E0.67178
G1 X136.285 Y102.785 E0.69379
G1 X136.74 Y103.485 E0.72156
G1 X137.072 Y104.033 E0.74287
G1 X137.446 Y104.696 E0.76818
G1 X137.765 Y105.31 E0.7912
G1 X138.152 Y106.12 E0.82105
G1 X138.413 Y106.712 E0.84257
G1 X138.69 Y107.401 E0.86727
G1 X138.926 Y108.052 E0.8903
G1 X139.204 Y108.907 E0.92021
G1 X139.388 Y109.541 E0.94216
G1 X139.567 Y110.243 E0.96626
G1 X139.709 Y110.886 E0.98816
G1 X139.867 Y111.73 E1.01672
G1 X139.966 Y112.374 E1.03839
G1 X140.064 Y113.179 E1.06536
G1 X140.124 Y113.86 E1.0881
G1 X140.168 Y114.672 E1.11515
G1 X140.183 Y115.301 E1.13607
G1 X140.177 Y116.1 E1.16265
G1 X140.147 Y116.807 E1.18619
G1 X140.08 Y117.676 E1.21518
G1 X140.006 Y118.345 E1.23756
G1 X139.892 Y119.137 E1.26418
G1 X139.774 Y119.799 E1.28654
G1 X139.607 Y120.587 E1.31333
G1 X139.457 Y121.203 E1.33442
G1 X139.245 Y121.966 E1.36076
G1 X139.038 Y122.624 E1.3837
G1 X138.759 Y123.416 E1.41163
G1 X138.522 Y124.024 E1.43333
G1 X138.2 Y124.78 E1.46066
G1 X137.908 Y125.406 E1.48364
G1 X137.433 Y126.341 E1.51852
G1 X136.277 Y128.694 E1.60571
G1 X135.239 Y130.967 E1.68883
G1 X133.922 Y134.118 E1.80241
G1 X133.532 Y135.103 E1.83765
G1 X133.162 Y135.927 E1.86769
G1 X132.722 Y136.715 E1.89771
G1 X132.213 Y137.462 E1.92777
G1 X131.641 Y138.16 E1.95779
G1 X130.894 Y138.91 E1.993
G1 X130.396 Y139.361 E2.01534
G1 X129.961 Y139.737 E2.03447
G1 X129.247 Y140.29 E2.0645
G1 X128.487 Y140.778 E2.09454
G1 X127.687 Y141.196 E2.12457
G1 X126.853 Y141.542 E2.1546
G1 X125.991 Y141.813 E2.18465
G1 X125.109 Y142.007 E2.21469
G1 X124.213 Y142.122 E2.24473
G1 X123.606 Y142.154 E2.26495
G1 X121.545 Y142.2 E2.33352
G1 X112.361 Y142.199 E2.63898
G1 X111.662 Y142.189 E2.66223
G1 X110.761 Y142.136 E2.69225
G1 X109.867 Y142.004 E2.7223
G1 X108.989 Y141.793 E2.75234
G1 X108.133 Y141.505 E2.78238
G1 X107.306 Y141.143 E2.8124
G1 X106.294 Y140.571 E2.85107
G1 X105.989 Y140.375 E2.86313
G1 X105.532 Y140.064 E2.88151
G1 X105.201 Y139.825 E2.89509
G1 X104.493 Y139.264 E2.92513
G1 X103.837 Y138.643 E2.95518
G1 X103 Y137.658 E2.99817
G1 X102.587 Y137.105 E3.02113
G1 X102.079 Y136.359 E3.05115
G1 X101.639 Y135.57 E3.08119
G1 X101.292 Y134.8 E3.10928
G1 X100.662 Y133.215 E3.16601
G1 X99.69 Y130.893 E3.24974
G1 X98.644 Y128.58 E3.33417
G1 X97.594 Y126.448 E3.41321
G1 X96.847 Y124.88 E3.47098
G1 X96.584 Y124.279 E3.4928
G1 X96.283 Y123.526 E3.51977
G1 X96.048 Y122.876 E3.54276
G1 X95.796 Y122.096 E3.57002
G1 X95.619 Y121.482 E3.59128
G1 X95.42 Y120.702 E3.61805
G1 X95.271 Y120.025 E3.64111
G1 X95.125 Y119.231 E3.66796
G1 X95.028 Y118.59 E3.68952
G1 X94.926 Y117.732 E3.71826
G1 X94.869 Y117.055 E3.74085
G1 X94.831 Y116.321 E3.7653
G1 X94.817 Y115.731 E3.78493
G1 X94.822 Y114.927 E3.81167
G1 X94.853 Y114.195 E3.83604
G1 X94.925 Y113.274 E3.86676
G1 X94.999 Y112.607 E3.88909
G1 X95.105 Y111.875 E3.91369
G1 X95.228 Y111.194 E3.9367
G1 X95.416 Y110.319 E3.96647
G1 X95.563 Y109.721 E3.98695
G1 X95.763 Y109.004 E4.01171
G1 X95.978 Y108.326 E4.03537
G1 X96.263 Y107.525 E4.06364
G1 X96.493 Y106.937 E4.08464
G1 X96.798 Y106.223 E4.11047
G1 X97.089 Y105.6 E4.13334
G1 X97.493 Y104.807 E4.16294
G1 X97.816 Y104.222 E4.18516
G1 X98.186 Y103.6 E4.20924
G1 X98.526 Y103.066 E4.23029
G1 X99.007 Y102.361 E4.25868
G1 X99.419 Y101.801 E4.2818
G1 X99.926 Y101.157 E4.30906
G1 X100.342 Y100.661 E4.33059
G1 X100.882 Y100.058 E4.35751
G1 X101.376 Y99.544 E4.38123
G1 X101.987 Y98.951 E4.40955
G1 X102.445 Y98.532 E4.43019
G1 X103.033 Y98.027 E4.45597
G1 X103.583 Y97.587 E4.4794
G1 X104.282 Y97.066 E4.50839
G1 X104.81 Y96.698 E4.5298
G1 X105.424 Y96.298 E4.55417
G1 X105.97 Y95.966 E4.57543
G1 X106.716 Y95.544 E4.60393
G1 X107.345 Y95.216 E4.62753
G1 X108.112 Y94.85 E4.65579
G1 X108.705 Y94.59 E4.67733
G1 X109.42 Y94.303 E4.70295
G1 X110.065 Y94.069 E4.72578
G1 X110.886 Y93.802 E4.75449
G1 X111.519 Y93.619 E4.77641
G1 X112.295 Y93.421 E4.80304
G1 X112.972 Y93.272 E4.8261
G1 X113.766 Y93.126 E4.85295
G1 X114.377 Y93.033 E4.87351
G1 X115.181 Y92.935 E4.90045
G1 X115.889 Y92.874 E4.92408
G1 X116.76 Y92.829 E4.95309
G1 X117.387 Y92.816 E4.97395
G1 X118.093 Y92.823 E4.99743
G1 X118.774 Y92.852 E5.0201
G0 F6000 X118.805 Y92.453
G1 F1200 X119.754 Y92.526 E5.05176
G1 X120.461 Y92.605 E5.07542
G1 X121.158 Y92.706 E5.09884
G1 X121.819 Y92.823 E5.12117
G1 X122.699 Y93.008 E5.15108
G1 X123.386 Y93.176 E5.1746
G1 X124.087 Y93.373 E5.19882
G1 X124.744 Y93.581 E5.22174
G1 X125.592 Y93.88 E5.25165
G1 X126.232 Y94.13 E5.2745
G1 X126.92 Y94.424 E5.29939
G1 X127.575 Y94.73 E5.32343
G1 X128.384 Y95.143 E5.35364
G1 X128.964 Y95.463 E5.37567
G1 X129.567 Y95.82 E5.39898
G1 X130.145 Y96.188 E5.42177
G1 X130.883 Y96.692 E5.4515
G1 X131.464 Y97.118 E5.47546
G1 X132.095 Y97.615 E5.50217
G1 X132.613 Y98.05 E5.52467
G1 X133.204 Y98.58 E5.55107
G1 X133.699 Y99.054 E5.57387
G1 X134.277 Y99.644 E5.60134
G1 X134.749 Y100.158 E5.62455
G1 X135.294 Y100.793 E5.65238
G1 X135.744 Y101.356 E5.67635
G1 X136.227 Y102.003 E5.70321
G1 X136.621 Y102.567 E5.72609
G1 X137.076 Y103.267 E5.75386
G1 X137.42 Y103.836 E5.77597
G1 X137.794 Y104.499 E5.80129
G1 X138.126 Y105.137 E5.82521
G1 X138.513 Y105.947 E5.85507
G1 X138.784 Y106.563 E5.87745
G1 X139.061 Y107.252 E5.90215
G1 X139.307 Y107.928 E5.92608
G1 X139.585 Y108.783 E5.95598
G1 X139.775 Y109.442 E5.97879
G1 X139.954 Y110.144 E6.00289
G1 X140.102 Y110.813 E6.02568
G1 X140.26 Y111.657 E6.05424
G1 X140.363 Y112.326 E6.07675
G1 X140.461 Y113.131 E6.10372
G1 X140.523 Y113.838 E6.12733
G1 X140.567 Y114.65 E6.15437
G1 X140.583 Y115.304 E6.17613
G1 X140.577 Y116.103 E6.20271
G1 X140.546 Y116.838 E6.22718
G1 X140.479 Y117.707 E6.25617
G1 X140.402 Y118.402 E6.27942
G1 X140.288 Y119.194 E6.30604
G1 X140.166 Y119.882 E6.32928
G1 X139.999 Y120.67 E6.35607
G1 X139.842 Y121.31 E6.37799
G1 X139.63 Y122.073 E6.40432
G1 X139.415 Y122.757 E6.42817
G1 X139.136 Y123.549 E6.4561
G1 X138.89 Y124.181 E6.47866
G1 X138.568 Y124.937 E6.50599
G1 X138.265 Y125.588 E6.52987
G1 X137.757 Y126.587 E6.56715
G1 X136.642 Y128.858 E6.65129
G1 X135.603 Y131.133 E6.73448
G1 X134.295 Y134.262 E6.84728
G1 X133.904 Y135.25 E6.88262
G1 X133.528 Y136.09 E6.91323
G1 X133.081 Y136.895 E6.94385
G1 X132.566 Y137.658 E6.97447
G1 X131.986 Y138.374 E7.00512
G1 X131.162 Y139.207 E7.04409
G1 X130.664 Y139.658 E7.06643
G1 X130.22 Y140.042 E7.08596
G1 X129.492 Y140.607 E7.11661
G1 X128.719 Y141.106 E7.14721
G1 X127.905 Y141.536 E7.17783
G1 X127.056 Y141.893 E7.20846
G1 X126.18 Y142.176 E7.23908
G1 X125.283 Y142.382 E7.26969
G1 X124.371 Y142.509 E7.30032
G1 X123.615 Y142.554 E7.32551
G1 X121.545 Y142.6 E7.39437
G1 X112.355 Y142.599 E7.70003
G1 X111.656 Y142.589 E7.72328
G1 X110.737 Y142.536 E7.7539
G1 X109.826 Y142.403 E7.78452
G1 X108.93 Y142.192 E7.81514
G1 X108.056 Y141.904 E7.84574
G1 X107.21 Y141.541 E7.87636
G1 X106.077 Y140.907 E7.91955
G1 X105.772 Y140.711 E7.9316
G1 X105.298 Y140.388 E7.95068
G1 X104.967 Y140.149 E7.96426
G1 X104.244 Y139.578 E7.9949
G1 X103.574 Y138.947 E8.02551
G1 X102.679 Y137.898 E8.07138
G1 X102.266 Y137.345 E8.09433
G1 X101.748 Y136.584 E8.12495
G1 X101.297 Y135.781 E8.15558
G1 X100.921 Y134.949 E8.18595
G1 X100.301 Y133.388 E8.24181
G1 X99.315 Y131.034 E8.3267
G1 X98.29 Y128.767 E8.40945
G1 X97.232 Y126.62 E8.48906
G1 X96.485 Y125.052 E8.54683
G1 X96.212 Y124.427 E8.56951
G1 X95.911 Y123.674 E8.59648
G1 X95.667 Y122.999 E8.62035
G1 X95.415 Y122.219 E8.64762
G1 X95.231 Y121.58 E8.66973
G1 X95.032 Y120.8 E8.69651
G1 X94.878 Y120.097 E8.72044
G1 X94.732 Y119.303 E8.7473
G1 X94.631 Y118.637 E8.7697
G1 X94.529 Y117.779 E8.79844
G1 X94.469 Y117.076 E8.82191
G1 X94.431 Y116.342 E8.84635
G1 X94.417 Y115.728 E8.86678
G1 X94.422 Y114.924 E8.89352
G1 X94.454 Y114.164 E8.91882
G1 X94.526 Y113.243 E8.94955
G1 X94.603 Y112.55 E8.97274
G1 X94.709 Y111.818 E8.99734
G1 X94.837 Y111.11 E9.02127
G1 X95.025 Y110.235 E9.05103
G1 X95.178 Y109.614 E9.07231
G1 X95.378 Y108.897 E9.09706
G1 X95.601 Y108.192 E9.12166
G1 X95.886 Y107.391 E9.14994
G1 X96.125 Y106.78 E9.17176
G1 X96.43 Y106.066 E9.19758
G1 X96.733 Y105.418 E9.22137
G1 X97.137 Y104.625 E9.25097
G1 X97.472 Y104.018 E9.27403
G1 X97.842 Y103.396 E9.2981
G1 X98.196 Y102.841 E9.32
G1 X98.677 Y102.136 E9.34838
G1 X99.104 Y101.553 E9.37242
G1 X99.611 Y100.909 E9.39968
G1 X100.044 Y100.395 E9.42203
G1 X100.584 Y99.792 E9.44896
G1 X101.098 Y99.256 E9.47366
G1 X101.709 Y98.663 E9.50198
G1 X102.185 Y98.229 E9.5234
G1 X102.773 Y97.724 E9.54918
G1 X103.344 Y97.266 E9.57353
G1 X104.043 Y96.745 E9.60252
G1 X104.592 Y96.362 E9.62479
G1 X105.206 Y95.962 E9.64916
G1 X105.773 Y95.618 E9.67122
G1 X106.519 Y95.196 E9.69972
G1 X107.173 Y94.855 E9.72426
G1 X107.94 Y94.489 E9.75252
G1 X108.556 Y94.219 E9.77489
G1 X109.271 Y93.932 E9.80052
G1 X109.942 Y93.689 E9.82425
G1 X110.763 Y93.422 E9.85297
G1 X111.42 Y93.231 E9.87572
G1 X112.196 Y93.033 E9.90236
G1 X112.9 Y92.879 E9.92633
G1 X113.694 Y92.733 E9.95318
G1 X114.328 Y92.636 E9.97451
G1 X115.132 Y92.538 E10.00145
G1 X115.868 Y92.474 E10.02602
G1 X116.739 Y92.429 E10.05503
G1 X117.391 Y92.416 E10.07672
G1 X118.097 Y92.423 E10.10021
G1 X118.805 Y92.453 E10.12377
G0 F6000 X118.836 Y92.054
G1 F1200 X119.785 Y92.127 E10.15543
G1 X120.518 Y92.209 E10.17996
G1 X121.215 Y92.31 E10.20339
G1 X121.901 Y92.431 E10.22656
G1 X122.781 Y92.616 E10.25647
G1 X123.494 Y92.791 E10.28088
G1 X124.195 Y92.988 E10.3051
G1 X124.877 Y93.204 E10.3289
G1 X125.725 Y93.503 E10.3588
G1 X126.389 Y93.762 E10.38251
G1 X127.077 Y94.056 E10.40739
G1 X127.757 Y94.374 E10.43236
G1 X128.566 Y94.787 E10.46257
G1 X129.168 Y95.118 E10.48542
G1 X129.771 Y95.475 E10.50873
G1 X130.371 Y95.857 E10.53239
G1 X131.109 Y96.361 E10.56211
G1 X131.711 Y96.804 E10.58697
G1 X132.342 Y97.301 E10.61368
G1 X132.88 Y97.753 E10.63706
G1 X133.471 Y98.283 E10.66346
G1 X133.985 Y98.774 E10.6871
G1 X134.563 Y99.364 E10.71457
G1 X135.052 Y99.898 E10.73865
G1 X135.597 Y100.533 E10.76649
G1 X136.065 Y101.117 E10.79138
G1 X136.548 Y101.764 E10.81823
G1 X136.956 Y102.349 E10.84195
G1 X137.411 Y103.049 E10.86972
G1 X137.769 Y103.639 E10.89268
G1 X138.143 Y104.302 E10.91799
G1 X138.487 Y104.965 E10.94284
G1 X138.874 Y105.775 E10.97269
G1 X139.155 Y106.414 E10.99591
G1 X139.432 Y107.103 E11.02061
G1 X139.687 Y107.805 E11.04545
G1 X139.965 Y108.66 E11.07536
G1 X140.163 Y109.343 E11.09901
G1 X140.342 Y110.045 E11.1231
G1 X140.495 Y110.739 E11.14674
G1 X140.653 Y111.583 E11.1753
G1 X140.76 Y112.278 E11.19869
G1 X140.858 Y113.083 E11.22566
G1 X140.923 Y113.817 E11.25017
G1 X140.967 Y114.629 E11.27721
G1 X140.983 Y115.307 E11.29977
G1 X140.977 Y116.106 E11.32635
G1 X140.944 Y116.869 E11.35175
G1 X140.877 Y117.738 E11.38074
G1 X140.798 Y118.459 E11.40486
G1 X140.684 Y119.251 E11.43147
G1 X140.557 Y119.965 E11.45559
G1 X140.39 Y120.753 E11.48239
G1 X140.227 Y121.417 E11.50513
G1 X140.015 Y122.18 E11.53147
G1 X139.792 Y122.89 E11.55622
G1 X139.513 Y123.682 E11.58415
G1 X139.258 Y124.337 E11.60752
G1 X138.936 Y125.093 E11.63485
G1 X138.621 Y125.769 E11.65966
G1 X138.134 Y126.727 E11.6954
G1 X137.007 Y129.021 E11.78041
G1 X135.967 Y131.3 E11.86373
G1 X134.65 Y134.45 E11.97729
G1 X134.275 Y135.397 E12.01117
G1 X133.894 Y136.254 E12.04236
G1 X133.44 Y137.074 E12.07354
G1 X132.918 Y137.854 E12.10475
G1 X132.332 Y138.586 E12.13594
G1 X131.431 Y139.503 E12.1787
G1 X130.933 Y139.954 E12.20104
G1 X130.479 Y140.347 E12.22101
G1 X129.738 Y140.923 E12.25223
G1 X128.951 Y141.433 E12.28342
G1 X128.124 Y141.874 E12.31459
G1 X127.261 Y142.244 E12.34583
G1 X126.371 Y142.538 E12.377
G1 X125.459 Y142.756 E12.40819
G1 X124.531 Y142.895 E12.4394
G1 X123.625 Y142.954 E12.4696
G1 X121.545 Y143 E12.53879
G1 X112.35 Y142.999 E12.84462
G1 X111.651 Y142.989 E12.86787
G1 X110.714 Y142.935 E12.89909
G1 X109.786 Y142.803 E12.93026
G1 X108.872 Y142.591 E12.96147
G1 X107.98 Y142.302 E12.99266
G1 X107.115 Y141.939 E13.02386
G1 X106.285 Y141.503 E13.05504
G1 X105.861 Y141.244 E13.07157
G1 X105.556 Y141.048 E13.08362
G1 X105.064 Y140.712 E13.10344
G1 X104.733 Y140.473 E13.11702
G1 X103.996 Y139.892 E13.14823
G1 X103.312 Y139.251 E13.17941
G1 X102.685 Y138.553 E13.21062
G1 X102.359 Y138.137 E13.2282
G1 X101.946 Y137.584 E13.25115
G1 X101.417 Y136.809 E13.28236
G1 X100.956 Y135.993 E13.31353
G1 X100.55 Y135.098 E13.34622
G1 X99.918 Y133.508 E13.40313
G1 X98.958 Y131.217 E13.48575
G1 X97.924 Y128.93 E13.56923
G1 X96.871 Y126.792 E13.64849
G1 X96.124 Y125.224 E13.70626
G1 X95.841 Y124.576 E13.72978
G1 X95.54 Y123.823 E13.75675
G1 X95.287 Y123.122 E13.78154
G1 X95.035 Y122.342 E13.8088
G1 X94.843 Y121.679 E13.83176
G1 X94.644 Y120.899 E13.85853
G1 X94.484 Y120.169 E13.88339
G1 X94.338 Y119.375 E13.91024
G1 X94.234 Y118.685 E13.93345
G1 X94.132 Y117.827 E13.96219
G1 X94.07 Y117.097 E13.98656
G1 X94.032 Y116.363 E14.011
G1 X94.017 Y115.726 E14.03219
G1 X94.022 Y114.922 E14.05894
G1 X94.055 Y114.133 E14.0852
G1 X94.127 Y113.212 E14.11593
G1 X94.208 Y112.493 E14.13999
G1 X94.314 Y111.761 E14.16459
G1 X94.445 Y111.026 E14.18942
G1 X94.633 Y110.151 E14.21919
G1 X94.792 Y109.506 E14.24129
G1 X94.992 Y108.789 E14.26604
G1 X95.224 Y108.058 E14.29155
G1 X95.509 Y107.257 E14.31983
G1 X95.757 Y106.623 E14.34247
G1 X96.062 Y105.909 E14.3683
G1 X96.377 Y105.237 E14.39298
G1 X96.781 Y104.444 E14.42258
G1 X97.128 Y103.813 E14.44653
G1 X97.498 Y103.191 E14.4706
G1 X97.865 Y102.615 E14.49332
G1 X98.346 Y101.91 E14.52171
G1 X98.79 Y101.306 E14.54664
G1 X99.297 Y100.662 E14.5739
G1 X99.746 Y100.128 E14.5971
G1 X100.286 Y99.525 E14.62403
G1 X100.819 Y98.969 E14.64964
G1 X101.43 Y98.376 E14.67796
G1 X101.924 Y97.925 E14.70021
G1 X102.512 Y97.42 E14.72599
G1 X103.105 Y96.945 E14.75126
G1 X103.804 Y96.424 E14.78026
G1 X104.374 Y96.027 E14.80336
G1 X104.988 Y95.627 E14.82773
G1 X105.576 Y95.27 E14.85061
G1 X106.322 Y94.848 E14.87912
G1 X107.001 Y94.494 E14.90459
G1 X107.768 Y94.128 E14.93286
G1 X108.407 Y93.848 E14.95606
G1 X109.122 Y93.561 E14.98168
G1 X109.818 Y93.308 E15.00632
G1 X110.639 Y93.041 E15.03503
